svg/numeric_10_box.svg

<svg xmlns="http://www.w3.org/2000/svg" viewBox="0 0 24 24"><path d="M14 9h2v6h-2zm7-4v14c0 1.11-.89 2-2 2H5a2 2 0 0 1-2-2V5a2 2 0 0 1 2-2h14a2 2 0 0 1 2 2M10 7H6v2h2v8h2zm8 2a2 2 0 0 0-2-2h-2a2 2 0 0 0-2 2v6a2 2 0 0 0 2 2h2c1.11 0 2-.89 2-2z"/></svg>

<?xml version="1.0" encoding="UTF-8"?><!DOCTYPE svg PUBLIC "-//W3C//DTD SVG 1.1//EN" "http://www.w3.org/Graphics/SVG/1.1/DTD/svg11.dtd"><svg xmlns="http://www.w3.org/2000/svg" xmlns:xlink="http://www.w3.org/1999/xlink" version="1.1" id="mdi-numeric-10-box" width="24" height="24" viewBox="0 0 24 24"><path d="M14,9H16V15H14V9M21,5V19C21,20.11 20.11,21 19,21H5A2,2 0 0,1 3,19V5A2,2 0 0,1 5,3H19C20.11,3 21,3.9 21,5M10,7H6V9H8V17H10V7M18,9A2,2 0 0,0 16,7H14A2,2 0 0,0 12,9V15C12,16.11 12.9,17 14,17H16C17.11,17 18,16.11 18,15V9Z" /></svg>
